X:1
T: Minnie Foster's
T: The Black Swan
Z: Aidan Crossey
S: https://thesession.org/tunes/8116#setting50210
R: hornpipe
M: 4/4
L: 1/8
K: Dmaj
|:(3EFG|ADFA BDGB|ADFA dA (3Bcd|eAce g2 fe|dBcB A2 (3EFG|
ADFA BDGB|ADFA dA (3Bcd|e2 ge cAGE|FABc d2 :|
|:(3Bcd|eAce g2 fe|dFAd f2ed|ea^gf edcB|Aeae A2 (3EFG|
AGAF DFA2|BABd GBdg|fadf egce|d2f2 d2 :|


